dist/img/icons/social/instagram.svg

<svg width="16" height="17" viewBox="0 0 16 17" fill="none" xmlns="http://www.w3.org/2000/svg">
<path d="M7.96036 4.48659C5.74683 4.48659 3.96139 6.27243 3.96139 8.48645C3.96139 10.7005 5.74683 12.4863 7.96036 12.4863C10.1739 12.4863 11.9593 10.7005 11.9593 8.48645C11.9593 6.27243 10.1739 4.48659 7.96036 4.48659ZM7.96036 11.0869C6.52992 11.0869 5.36051 9.92069 5.36051 8.48645C5.36051 7.05221 6.52644 5.88602 7.96036 5.88602C9.39428 5.88602 10.5602 7.05221 10.5602 8.48645C10.5602 9.92069 9.3908 11.0869 7.96036 11.0869ZM13.0556 4.32298C13.0556 4.84167 12.638 5.25593 12.1229 5.25593C11.6043 5.25593 11.1902 4.83819 11.1902 4.32298C11.1902 3.80777 11.6078 3.39003 12.1229 3.39003C12.638 3.39003 13.0556 3.80777 13.0556 4.32298ZM15.7042 5.26986C15.6451 4.02012 15.3597 2.91311 14.4443 2.00104C13.5325 1.08898 12.4257 0.803524 11.1762 0.740863C9.88849 0.667759 6.02874 0.667759 4.741 0.740863C3.49502 0.800043 2.38826 1.0855 1.47292 1.99756C0.557577 2.90963 0.275666 4.01664 0.213019 5.26638C0.139931 6.55441 0.139931 10.415 0.213019 11.703C0.272186 12.9528 0.557577 14.0598 1.47292 14.9719C2.38826 15.8839 3.49154 16.1694 4.741 16.232C6.02874 16.3051 9.88849 16.3051 11.1762 16.232C12.4257 16.1729 13.5325 15.8874 14.4443 14.9719C15.3562 14.0598 15.6416 12.9528 15.7042 11.703C15.7773 10.415 15.7773 6.55789 15.7042 5.26986ZM14.0406 13.0851C13.7691 13.7674 13.2436 14.293 12.5579 14.568C11.5312 14.9753 9.09496 14.8813 7.96036 14.8813C6.82575 14.8813 4.386 14.9719 3.36277 14.568C2.68061 14.2965 2.15507 13.7709 1.88012 13.0851C1.47292 12.0581 1.56689 9.62131 1.56689 8.48645C1.56689 7.35159 1.4764 4.9113 1.88012 3.88783C2.15159 3.20553 2.67713 2.67987 3.36277 2.40486C4.38948 1.99756 6.82575 2.09155 7.96036 2.09155C9.09496 2.09155 11.5347 2.00104 12.5579 2.40486C13.2401 2.67639 13.7656 3.20205 14.0406 3.88783C14.4478 4.91478 14.3538 7.35159 14.3538 8.48645C14.3538 9.62131 14.4478 12.0616 14.0406 13.0851Z" fill="#161C25"/>
</svg>

<svg width="16" height="17" fill="none" xmlns="http://www.w3.org/2000/svg"><path d="M7.96 4.487a3.993 3.993 0 00-3.999 4c0 2.213 1.786 4 4 4a3.993 3.993 0 003.998-4c0-2.215-1.785-4-3.999-4zm0 6.6c-1.43 0-2.6-1.166-2.6-2.6a2.603 2.603 0 012.6-2.601c1.434 0 2.6 1.166 2.6 2.6 0 1.435-1.17 2.6-2.6 2.6zm5.096-6.764a.93.93 0 01-.933.933.933.933 0 11.933-.933zm2.648.947c-.059-1.25-.344-2.357-1.26-3.269-.912-.912-2.018-1.197-3.268-1.26C9.888.668 6.03.668 4.741.74c-1.246.06-2.353.345-3.268 1.258C.558 2.91.276 4.017.213 5.266c-.073 1.288-.073 5.149 0 6.437.06 1.25.345 2.357 1.26 3.269.915.912 2.019 1.197 3.268 1.26 1.288.073 5.147.073 6.435 0 1.25-.06 2.357-.345 3.268-1.26.912-.912 1.198-2.02 1.26-3.269.073-1.288.073-5.145 0-6.433zm-1.663 7.815a2.632 2.632 0 01-1.483 1.483c-1.027.407-3.463.313-4.598.313-1.134 0-3.574.09-4.597-.313a2.632 2.632 0 01-1.483-1.483c-.407-1.027-.313-3.464-.313-4.599 0-1.134-.09-3.575.313-4.598a2.632 2.632 0 011.483-1.483c1.026-.407 3.463-.313 4.597-.313 1.135 0 3.575-.091 4.598.313a2.633 2.633 0 011.483 1.483c.407 1.027.313 3.464.313 4.598 0 1.135.094 3.576-.313 4.6z" fill="#161C25"/></svg>
